packages/icons/svg/Inline/Images.svg

<svg width="9" height="10" viewBox="0 0 9 10" fill="none" xmlns="http://www.w3.org/2000/svg">
<path d="M0 2C0 1.44772 0.447715 1 1 1H6C6.55228 1 7 1.44772 7 2V7C7 7.55228 6.55228 8 6 8H1C0.447715 8 0 7.55228 0 7V2Z" fill="#858585"/>
<path d="M3 10C2.44772 10 2 9.55228 2 9H6C7.10457 9 8 8.10457 8 7V3C8.55228 3 9 3.44772 9 4V9C9 9.55228 8.55228 10 8 10H3Z" fill="#858585"/>
</svg>

<svg width="9" height="10" fill="none" xmlns="http://www.w3.org/2000/svg" viewBox="0 0 9 10"><path d="M0 2a1 1 0 011-1h5a1 1 0 011 1v5a1 1 0 01-1 1H1a1 1 0 01-1-1V2z" fill="currentColor"></path><path d="M3 10a1 1 0 01-1-1h4a2 2 0 002-2V3a1 1 0 011 1v5a1 1 0 01-1 1H3z" fill="currentColor"></path></svg>
